X:11
M: C|
L:1/8
K:D
"German Flute"
|: [A,A][Dd][A,A][Dd] [B,B][Dd][B,B][Dd] | [Ee][Ff][Gg][Bb]
[Aa][Ff][Ee][Ff] | [A,A][Dd][A,A][Dd] [B,B][Dd][B,B][Dd] | [Aa][Ff][Ee][Ff]
[D/d/][D/d/][Dd][D2d2] :|
|: abaf dfdf | gb/g/ fa/f/ edef | abaf dfdf | Bgfe d/d/d d2 :|
|: (BA)(AG) (GF)(FE) | (D/E/F/G/) AF EDEF | (BA)(AG) (GF)(FE) | GBAF D/D/D D2 :|

